contributed-vectors/one_plus_system_update.svg

<?xml version="1.0" encoding="UTF-8" standalone="no"?>
<svg
   xmlns:dc="http://purl.org/dc/elements/1.1/"
   xmlns:cc="http://creativecommons.org/ns#"
   xmlns:rdf="http://www.w3.org/1999/02/22-rdf-syntax-ns#"
   xmlns:svg="http://www.w3.org/2000/svg"
   xmlns="http://www.w3.org/2000/svg"
   xmlns:sodipodi="http://sodipodi.sourceforge.net/DTD/sodipodi-0.dtd"
   xmlns:inkscape="http://www.inkscape.org/namespaces/inkscape"
   viewBox="0 0 192 192"
   version="1.1"
   id="svg16"
   sodipodi:docname="one_plus_system_update.svg"
   inkscape:version="0.92.4 (5da689c313, 2019-01-14)">
  <metadata
     id="metadata20">
    <rdf:RDF>
      <cc:Work
         rdf:about="">
        <dc:format>image/svg+xml</dc:format>
        <dc:type
           rdf:resource="http://purl.org/dc/dcmitype/StillImage" />
        <dc:title />
      </cc:Work>
    </rdf:RDF>
  </metadata>
  <sodipodi:namedview
     pagecolor="#ffffff"
     bordercolor="#666666"
     borderopacity="1"
     objecttolerance="10"
     gridtolerance="10"
     guidetolerance="10"
     inkscape:pageopacity="0"
     inkscape:pageshadow="2"
     inkscape:window-width="1920"
     inkscape:window-height="1017"
     id="namedview18"
     showgrid="true"
     inkscape:zoom="4.9166667"
     inkscape:cx="40.957213"
     inkscape:cy="116.35293"
     inkscape:window-x="-8"
     inkscape:window-y="-8"
     inkscape:window-maximized="1"
     inkscape:current-layer="svg16"
     inkscape:snap-global="false">
    <inkscape:grid
       type="xygrid"
       id="grid827"
       spacingx="4"
       spacingy="4" />
  </sodipodi:namedview>
  <defs
     id="defs4">
    <style
       id="style2">.a{fill:none;stroke:#b1b5bd;stroke-linecap:round;stroke-linejoin:round;isolation:isolate;opacity:0.63;}</style>
  </defs>
  <path
     inkscape:connector-curvature="0"
     style="clip-rule:evenodd;fill:#a0a5af;fill-rule:evenodd;stroke-width:1.01817799"
     d="m 71.070497,34.812826 4.054181,-21.188997 c 0.642674,-3.358867 3.580423,-5.7878322 7.000178,-5.7878322 h 29.417904 c 3.41904,0 6.35751,2.4289652 6.99998,5.7878322 l 4.23358,22.126942 c 1.77061,0.797132 3.5005,1.670423 5.18354,2.615598 3.06676,1.679382 6.01235,3.608932 8.80114,5.779687 l 20.38392,-7.077355 c 3.22966,-1.121421 6.80041,0.208523 8.50993,3.169282 l 14.75136,25.550362 c 1.70952,2.96076 1.07622,6.718346 -1.50996,8.954672 l -17.04328,14.738737 c 0.23622,2.321853 0.3472,4.646659 0.336,6.964541 0.0153,3.106155 -0.1904,6.225855 -0.62109,9.333335 l 16.3214,14.11398 c 2.58617,2.23592 3.21947,5.99401 1.50995,8.95488 l -14.75136,25.55015 c -1.70952,2.96086 -5.28027,4.29061 -8.50993,3.16959 l -21.28603,-7.39095 c -2.21352,1.5965 -4.51664,3.04842 -6.89205,4.34864 -2.37031,1.33177 -4.83227,2.51999 -7.37262,3.55344 l -4.05439,21.1893 c -0.64247,3.35897 -3.58093,5.78834 -6.99997,5.78834 H 80.114972 c -3.419754,0 -6.357605,-2.42937 -7.000279,-5.78834 l -4.233584,-22.12705 c -0.751415,-0.33803 -1.495296,-0.69032 -2.231337,-1.05483 -4.165773,-2.00886 -8.136667,-4.46267 -11.833977,-7.34004 l -20.383719,7.07735 c -3.229661,1.12102 -6.800615,-0.20872 -8.510034,-3.16959 L 11.170476,127.10435 c -1.7094189,-2.96087 -1.075603,-6.71896 1.510366,-8.95488 l 17.043484,-14.73914 c -0.236115,-2.32145 -0.347402,-4.645949 -0.336406,-6.964035 -0.01476,-3.106563 0.190094,-6.225548 0.620885,-9.33323 L 13.68782,72.998878 c -2.586071,-2.236224 -3.219785,-5.99381 -1.510366,-8.95457 L 26.928919,38.493946 c 1.709419,-2.960759 5.280474,-4.290703 8.510135,-3.169384 l 21.285927,7.39075 c 3.14393,-2.268195 6.467262,-4.241831 9.924791,-5.908996 1.444387,-0.716899 2.918709,-1.382176 4.420725,-1.99349 z"
     id="path2" />
  <path
     style="opacity:1;fill:#ffffff;stroke:none;stroke-width:1px;stroke-linecap:butt;stroke-linejoin:miter;stroke-opacity:1"
     d="M 94.019531 31.832031 C 86.744595 31.803029 78.797223 32.556373 71.070312 34.8125 C 69.568297 35.423814 68.094778 36.089742 66.650391 36.806641 C 63.192862 38.473806 59.868539 40.446649 56.724609 42.714844 L 35.439453 35.324219 C 32.209792 34.2029 28.639107 35.533382 26.929688 38.494141 L 12.177734 64.044922 C 10.468315 67.005682 11.101429 70.761823 13.6875 72.998047 L 30.009766 87.113281 C 29.578975 90.220963 29.373912 93.340703 29.388672 96.447266 C 29.377676 98.765352 29.488494 101.08871 29.724609 103.41016 C 29.724609 103.41016 30.040997 123.88406 54.816406 148.74609 C 58.513716 151.62346 62.484618 154.07708 66.650391 156.08594 C 67.386432 156.45045 68.129444 156.80455 68.880859 157.14258 C 68.880859 157.14258 94.677501 165.84495 120.58789 158.08008 C 123.12824 157.04663 125.58867 155.85716 127.95898 154.52539 C 130.33439 153.22517 132.63804 151.77423 134.85156 150.17773 L 156.13867 157.56836 C 159.36833 158.68938 162.93892 157.3593 164.64844 154.39844 L 179.39844 128.84766 C 181.10796 125.88679 180.47484 122.13045 177.88867 119.89453 L 161.56836 105.7793 C 161.99905 102.67182 162.20475 99.553421 162.18945 96.447266 C 162.20065 94.129384 162.08974 91.804275 161.85352 89.482422 C 161.85352 89.482422 159.90704 62.353649 136.76172 44.146484 C 133.97293 41.975729 131.02574 40.046569 127.95898 38.367188 C 126.27594 37.422013 124.546 36.547132 122.77539 35.75 C 122.77539 35.75 110.02439 31.895835 94.019531 31.832031 z "
     id="path832" />
  <circle
     class="a"
     cx="96"
     cy="96"
     r="36.5"
     id="circle10"
     style="fill:#56595b;stroke:none;opacity:1" />
</svg>

<svg xmlns="http://www.w3.org/2000/svg" viewBox="0 0 192 192"><path d="m71.07 34.813 4.055-21.19a7.127 7.127 0 0 1 7-5.787h29.418a7.127 7.127 0 0 1 7 5.788l4.233 22.127c1.77.797 3.5 1.67 5.184 2.615a65.708 65.708 0 0 1 8.801 5.78l20.384-7.077a7.127 7.127 0 0 1 8.51 3.169l14.751 25.55a7.127 7.127 0 0 1-1.51 8.955l-17.043 14.739c.236 2.322.347 4.646.336 6.964a65.636 65.636 0 0 1-.621 9.334l16.321 14.114a7.127 7.127 0 0 1 1.51 8.954l-14.751 25.55a7.128 7.128 0 0 1-8.51 3.17l-21.286-7.39a65.76 65.76 0 0 1-6.892 4.348 65.242 65.242 0 0 1-7.373 3.553l-4.054 21.19a7.128 7.128 0 0 1-7 5.788H80.115a7.128 7.128 0 0 1-7-5.788l-4.234-22.127a66.557 66.557 0 0 1-2.231-1.055 65.809 65.809 0 0 1-11.834-7.34l-20.384 7.077a7.128 7.128 0 0 1-8.51-3.17l-14.752-25.55a7.127 7.127 0 0 1 1.51-8.955l17.044-14.739a65.738 65.738 0 0 1-.336-6.964c-.015-3.106.19-6.225.62-9.333L13.689 73a7.127 7.127 0 0 1-1.51-8.955l14.75-25.55a7.127 7.127 0 0 1 8.511-3.17l21.286 7.391a65.831 65.831 0 0 1 9.925-5.909 65.379 65.379 0 0 1 4.42-1.993z" style="clip-rule:evenodd;fill:#a0a5af;fill-rule:evenodd;stroke-width:1.01817799"/><path d="M94.02 31.832c-7.275-.029-15.223.724-22.95 2.98a65.366 65.366 0 0 0-4.42 1.995 65.836 65.836 0 0 0-9.925 5.908l-21.286-7.39a7.127 7.127 0 0 0-8.51 3.17l-14.751 25.55a7.125 7.125 0 0 0 1.51 8.953L30.01 87.113a65.707 65.707 0 0 0-.621 9.334c-.011 2.318.1 4.642.336 6.963 0 0 .316 20.474 25.091 45.336a65.808 65.808 0 0 0 11.834 7.34c.736.364 1.48.719 2.23 1.057 0 0 25.798 8.702 51.708.937 2.54-1.033 5-2.223 7.371-3.555a65.758 65.758 0 0 0 6.893-4.347l21.287 7.39a7.127 7.127 0 0 0 8.51-3.17l14.75-25.55a7.125 7.125 0 0 0-1.51-8.953l-16.32-14.116c.43-3.107.636-6.226.62-9.332.012-2.318-.1-4.643-.335-6.965 0 0-1.947-27.128-25.092-45.336a65.722 65.722 0 0 0-8.803-5.779 65.523 65.523 0 0 0-5.184-2.617s-12.75-3.854-28.755-3.918z" style="opacity:1;fill:#fff;stroke:none;stroke-width:1px;stroke-linecap:butt;stroke-linejoin:miter;stroke-opacity:1"/><circle cx="96" cy="96" r="36.5" style="fill:#56595b;stroke:none;opacity:1;stroke-linecap:round;stroke-linejoin:round;isolation:isolate"/></svg>
